static/assets/img/icons/theme/shopping/wallet-2.svg

<svg height="24" viewBox="0 0 24 24" width="24" xmlns="http://www.w3.org/2000/svg"><g fill="none" fill-rule="evenodd"><path d="m0 0h24v24h-24z" opacity="0"/><g fill="#000"><rect height="12" opacity=".3" rx="2" width="10" x="2" y="2"/><path d="m4 6h16c1.1045695 0 2 .8954305 2 2v12c0 1.1045695-.8954305 2-2 2h-16c-1.1045695 0-2-.8954305-2-2v-12c0-1.1045695.8954305-2 2-2zm14 10c1.1045695 0 2-.8954305 2-2s-.8954305-2-2-2-2 .8954305-2 2 .8954305 2 2 2z"/></g></g></svg>

<svg width="24px" height="24px" viewBox="0 0 24 24" version="1.1" xmlns="http://www.w3.org/2000/svg" xmlns:xlink="http://www.w3.org/1999/xlink">
    <title>Icon For Wallet#2</title>
    <g stroke="none" stroke-width="1" fill="none" fill-rule="evenodd">
        <rect opacity="0" x="0" y="0" width="24" height="24"></rect>
        <rect fill="#000000" opacity="0.3" x="2" y="2" width="10" height="12" rx="2"></rect>
        <path d="M4,6 L20,6 C21.1045695,6 22,6.8954305 22,8 L22,20 C22,21.1045695 21.1045695,22 20,22 L4,22 C2.8954305,22 2,21.1045695 2,20 L2,8 C2,6.8954305 2.8954305,6 4,6 Z M18,16 C19.1045695,16 20,15.1045695 20,14 C20,12.8954305 19.1045695,12 18,12 C16.8954305,12 16,12.8954305 16,14 C16,15.1045695 16.8954305,16 18,16 Z" fill="#000000"></path>
    </g>
</svg>
